X: 1057
T: The Humors of Cork
R:double jig
N:"collected by F.O'Neill"
B:O'Neill's 1057
Z:Transcribed by henrik.norbeck@mailbox.swipnet.se
M:6/8
L:1/8
K:G
e|dBG GFG|GFG ABc|B>AG d>cB|ece efg|
dBG GFG|ABc Bcd|def dec|BGG G2:|
d|g2b e2g|dcB ABc|BAG dcB|ece efg|
dBG GFG|ABc Bcd|def dec|BGG G2:|


